X: 6
T: The Moving Bogs
R: reel
M: 4/4
L: 1/8
K: Dmaj
A,|D2FA {c}d2(Ac)|{c}d2(fd) fe{c}dc|{c}d2(Ad) TBA{F}GF|TE2(AE) {G}FDD:|
A|{c}defg {fg}a2(fd)|g2(bg) {gf}e2{d}(cA)|{c}defg {fg}a2(fd)|AgTfe fddA|
{c}defg fafd|{f}g2(bg) ee{d}cA|{c}D2(Ad) TBA{F}GF|TE2(AE) {G}FDD|]


Tune 716	Setting 716

